assets/home/4K 1.svg

<svg xmlns="http://www.w3.org/2000/svg" width="120" height="120" fill="none" xmlns:v="https://vecta.io/nano"><path fill-rule="evenodd" d="M60 0c33.115 0 60 26.885 60 60s-26.885 60-60 60S0 93.115 0 60 26.885 0 60 0zm0 10c27.596 0 50 22.404 50 50s-22.404 50-50 50-50-22.404-50-50 22.404-50 50-50z" fill="url(#A)"/><path d="M27.862 71.5c-.265 0-.52-.105-.707-.293s-.293-.442-.293-.707v-5.585c0-.205.063-.405.18-.573l15.321-21.915a1 1 0 0 1 .82-.427h8.029a1 1 0 0 1 1 1v20.1a1 1 0 0 0 1 1h2.1a1 1 0 0 1 1 1v5.4a1 1 0 0 1-1 1h-2.1a1 1 0 0 0-1 1V77a1 1 0 0 1-1 1h-6.55a1 1 0 0 1-1-1v-4.5a1 1 0 0 0-1-1h-14.8zm16.4-16.775a1 1 0 0 0-1.834-.552l-5.54 8.375a1 1 0 0 0 .834 1.552h5.54a1 1 0 0 0 1-1v-8.375z" fill="url(#B)"/><path d="M83.957 78a1 1 0 0 1-.795-.394l-9.705-12.747a1 1 0 0 0-1.795.605V77a1 1 0 0 1-1 1h-6.548a1 1 0 0 1-.999-1.003l.094-34a1 1 0 0 1 1-.997h6.547a1 1 0 0 1 1 1.006l-.076 12.317a1 1 0 0 0 1.793.614l10.389-13.546a1 1 0 0 1 .793-.391h7.483a1 1 0 0 1 .783 1.623L80.305 59.481a1 1 0 0 0-.003 1.241l12.335 15.659A1 1 0 0 1 91.851 78h-7.894z" fill="url(#B)"/><defs><linearGradient id="A" x1="17.915" y1="17.252" x2="102.751" y2="102.083" gradientUnits="userSpaceOnUse"><stop stop-color="#ff0cf5"/><stop offset="1" stop-color="#0575e6"/></linearGradient><linearGradient id="B" x1="33" y1="43" x2="96" y2="79" gradientUnits="userSpaceOnUse"><stop stop-color="#a83afe"/><stop offset="1" stop-color="#6e59fe"/></linearGradient></defs></svg>

<svg width="120" height="120" viewBox="0 0 120 120" fill="none" xmlns="http://www.w3.org/2000/svg">
<path fill-rule="evenodd" clip-rule="evenodd" d="M60 0C93.115 0 120 26.885 120 60C120 93.115 93.115 120 60 120C26.885 120 0 93.115 0 60C0 26.885 26.885 0 60 0ZM60 10C87.596 10 110 32.404 110 60C110 87.596 87.596 110 60 110C32.404 110 10 87.596 10 60C10 32.404 32.404 10 60 10Z" fill="url(#paint0_linear_5_147)"/>
<path d="M27.862 71.5C27.597 71.5 27.342 71.395 27.155 71.207C26.967 71.02 26.862 70.765 26.862 70.5C26.862 68.912 26.862 65.894 26.862 64.915C26.862 64.71 26.925 64.51 27.042 64.342C28.639 62.058 40.337 45.325 42.363 42.427C42.55 42.159 42.856 42 43.183 42C44.71 42 49.197 42 51.212 42C51.477 42 51.731 42.105 51.919 42.293C52.106 42.48 52.212 42.735 52.212 43C52.212 46.677 52.212 59.423 52.212 63.1C52.212 63.652 52.659 64.1 53.212 64.1C53.85 64.1 54.674 64.1 55.312 64.1C55.864 64.1 56.312 64.548 56.312 65.1C56.312 66.515 56.312 69.085 56.312 70.5C56.312 71.052 55.864 71.5 55.312 71.5C54.674 71.5 53.85 71.5 53.212 71.5C52.659 71.5 52.212 71.948 52.212 72.5C52.212 73.722 52.212 75.778 52.212 77C52.212 77.552 51.764 78 51.212 78C49.566 78 46.307 78 44.662 78C44.109 78 43.662 77.552 43.662 77C43.662 75.778 43.662 73.722 43.662 72.5C43.662 72.235 43.556 71.98 43.369 71.793C43.181 71.605 42.927 71.5 42.662 71.5C39.676 71.5 30.848 71.5 27.862 71.5ZM44.262 54.725C44.262 54.283 43.972 53.894 43.55 53.767C43.127 53.64 42.671 53.805 42.428 54.173C40.729 56.741 38.264 60.468 36.888 62.548C36.685 62.855 36.667 63.249 36.841 63.573C37.016 63.898 37.354 64.1 37.722 64.1C39.431 64.1 41.898 64.1 43.262 64.1C43.814 64.1 44.262 63.652 44.262 63.1C44.262 61.317 44.262 57.513 44.262 54.725Z" fill="url(#paint1_linear_5_147)"/>
<path d="M83.957 78C83.645 78 83.351 77.854 83.162 77.606C81.824 75.848 76.343 68.649 73.457 64.859C73.197 64.517 72.749 64.38 72.342 64.517C71.935 64.654 71.662 65.035 71.662 65.464C71.662 68.996 71.662 74.707 71.662 77C71.662 77.552 71.214 78 70.662 78C69.017 78 65.761 78 64.114 78C63.849 78 63.594 77.894 63.406 77.706C63.219 77.518 63.114 77.263 63.115 76.997C63.129 71.82 63.195 48.161 63.209 42.997C63.21 42.446 63.658 42 64.209 42C65.851 42 69.107 42 70.756 42C71.022 42 71.277 42.106 71.465 42.295C71.653 42.484 71.757 42.74 71.756 43.006C71.741 45.417 71.703 51.598 71.68 55.323C71.677 55.752 71.949 56.136 72.356 56.275C72.762 56.414 73.212 56.278 73.473 55.937C76.517 51.969 82.462 44.217 83.862 42.391C84.051 42.145 84.344 42 84.655 42C85.994 42 89.753 42 92.138 42C92.522 42 92.872 42.22 93.039 42.566C93.206 42.911 93.16 43.322 92.921 43.623C89.867 47.461 82.306 56.964 80.305 59.481C80.016 59.844 80.015 60.357 80.302 60.722C82.27 63.221 89.643 72.581 92.637 76.381C92.874 76.682 92.918 77.092 92.751 77.437C92.583 77.781 92.234 78 91.851 78C89.367 78 85.351 78 83.957 78Z" fill="url(#paint2_linear_5_147)"/>
<defs>
<linearGradient id="paint0_linear_5_147" x1="17.9146" y1="17.2518" x2="102.751" y2="102.083" gradientUnits="userSpaceOnUse">
<stop stop-color="#FF0CF5"/>
<stop offset="1" stop-color="#0575E6"/>
</linearGradient>
<linearGradient id="paint1_linear_5_147" x1="33" y1="43" x2="96" y2="79" gradientUnits="userSpaceOnUse">
<stop stop-color="#A83AFE"/>
<stop offset="1" stop-color="#6E59FE"/>
</linearGradient>
<linearGradient id="paint2_linear_5_147" x1="33" y1="43" x2="96" y2="79" gradientUnits="userSpaceOnUse">
<stop stop-color="#A83AFE"/>
<stop offset="1" stop-color="#6E59FE"/>
</linearGradient>
</defs>
</svg>
